material/.icons/material/rhombus-split.svg

<svg xmlns="http://www.w3.org/2000/svg" viewBox="0 0 24 24"><path d="M7.36 5.94L10.8 2.5c.7-.7 1.7-.7 2.4 0l3.44 3.44L12 10.59 7.36 5.94m10.7 1.42L13.41 12l4.65 4.64 3.44-3.44c.6-.7.6-1.7 0-2.4l-3.44-3.44M5.94 16.64L10.59 12 5.94 7.36 2.5 10.8c-.7.7-.7 1.7 0 2.4l3.44 3.44M12 13.41l-4.64 4.65 3.44 3.44c.7.7 1.7.7 2.4 0l3.44-3.44L12 13.41z"/></svg>

<?xml version="1.0" encoding="UTF-8"?><!DOCTYPE svg PUBLIC "-//W3C//DTD SVG 1.1//EN" "http://www.w3.org/Graphics/SVG/1.1/DTD/svg11.dtd"><svg xmlns="http://www.w3.org/2000/svg" xmlns:xlink="http://www.w3.org/1999/xlink" version="1.1" id="mdi-rhombus-split" width="24" height="24" viewBox="0 0 24 24"><path d="M7.36,5.94L10.8,2.5C11.5,1.8 12.5,1.8 13.2,2.5L16.64,5.94L12,10.59L7.36,5.94M18.06,7.36L13.41,12L18.06,16.64L21.5,13.2C22.1,12.5 22.1,11.5 21.5,10.8L18.06,7.36M5.94,16.64L10.59,12L5.94,7.36L2.5,10.8C1.8,11.5 1.8,12.5 2.5,13.2L5.94,16.64M12,13.41L7.36,18.06L10.8,21.5C11.5,22.2 12.5,22.2 13.2,21.5L16.64,18.06L12,13.41Z" /></svg>
